symbols/web/picture_in_picture/materialsymbolsoutlined/picture_in_picture_wght600grad200_40px.svg

<svg xmlns="http://www.w3.org/2000/svg" height="40" width="40"><path d="M18.167 21.917h13.916V11.292H18.167ZM6.333 34.292q-1.625 0-2.812-1.188-1.188-1.187-1.188-2.812V9.708q0-1.666 1.188-2.854 1.187-1.187 2.812-1.187h27.334q1.666 0 2.833 1.187 1.167 1.188 1.167 2.854v20.584q0 1.625-1.167 2.812-1.167 1.188-2.833 1.188Zm0-4V9.708v20.584Zm0 0h27.334V9.708H6.333v20.584Zm14.959-11.5v-4.375h7.666v4.375Z"/></svg>

<svg xmlns="http://www.w3.org/2000/svg" height="40" width="40"><path d="M18.167 21.917H32.083V11.292H18.167ZM6.333 34.292Q4.708 34.292 3.521 33.104Q2.333 31.917 2.333 30.292V9.708Q2.333 8.042 3.521 6.854Q4.708 5.667 6.333 5.667H33.667Q35.333 5.667 36.5 6.854Q37.667 8.042 37.667 9.708V30.292Q37.667 31.917 36.5 33.104Q35.333 34.292 33.667 34.292ZM6.333 30.292Q6.333 30.292 6.333 30.292Q6.333 30.292 6.333 30.292V9.708Q6.333 9.708 6.333 9.708Q6.333 9.708 6.333 9.708Q6.333 9.708 6.333 9.708Q6.333 9.708 6.333 9.708V30.292Q6.333 30.292 6.333 30.292Q6.333 30.292 6.333 30.292ZM6.333 30.292H33.667Q33.667 30.292 33.667 30.292Q33.667 30.292 33.667 30.292V9.708Q33.667 9.708 33.667 9.708Q33.667 9.708 33.667 9.708H6.333Q6.333 9.708 6.333 9.708Q6.333 9.708 6.333 9.708V30.292Q6.333 30.292 6.333 30.292Q6.333 30.292 6.333 30.292ZM21.292 18.792V14.417H28.958V18.792Z"/></svg>
